svg_80x80/php.svg

<svg viewBox="0 0 80 80" xmlns="http://www.w3.org/2000/svg">
<rect width="100%" height="100%" fill="#5C669A"/>
<path d="M12.2277 29.9394H22.0129C24.8932 29.9394 26.976 30.7608 28.2615 32.4037C29.5469 34.0466 29.9731 36.2635 29.54 39.0544C29.3606 40.367 28.978 41.6436 28.4058 42.8385C27.8392 44.0875 27.0455 45.2203 26.0652 46.1793C25.0189 47.3371 23.6627 48.1708 22.1573 48.5818C20.7462 48.9234 19.2991 49.093 17.8473 49.0871H13.4651L12.0834 55.9955H7L12.2277 29.9394V29.9394ZM16.4965 34.0638L14.3106 44.9832C14.4547 44.9934 14.5994 44.9934 14.7436 44.9832H15.2592C17.232 45.056 19.2041 44.823 21.1056 44.2924C22.6625 43.7872 23.704 42.0136 24.1989 38.9925C24.6423 36.4457 24.1989 34.9815 22.8894 34.5897C21.3057 34.1724 19.6697 33.9883 18.0329 34.0432C17.7512 34.0578 17.469 34.0578 17.1874 34.0432H16.4243L16.4965 34.0638ZM35.3246 23H40.3461L38.9231 29.9394H43.4394C45.4084 29.8321 47.3589 30.3676 48.9971 31.4654C50.2344 32.4346 50.6056 34.27 50.09 36.9921L47.6669 49.1077H42.5114L44.852 37.5489C44.9916 37.1265 45.0436 36.6799 45.0045 36.2367C44.9655 35.7934 44.8364 35.3628 44.6252 34.9712C44.2876 34.667 43.8871 34.441 43.4523 34.3091C43.0175 34.1772 42.5589 34.1427 42.1093 34.2082H38.057L35.0977 49.1077H30.035L35.2936 23.0206L35.3246 23ZM55.524 29.9394H65.3092C68.1894 29.9394 70.2723 30.7608 71.5577 32.4037C72.8432 34.0466 73.2694 36.2635 72.8363 39.0544C72.6569 40.367 72.2742 41.6436 71.7021 42.8385C71.1355 44.0875 70.3418 45.2203 69.3615 46.1793C68.3151 47.3371 66.959 48.1708 65.4536 48.5818C64.0425 48.9234 62.5953 49.093 61.1435 49.0871H56.7613L55.3796 55.9955H50.2963L55.524 29.9394V29.9394ZM59.7928 34.0638L57.6068 44.9832C57.751 44.9934 57.8957 44.9934 58.0399 44.9832H58.5554C60.5282 45.056 62.5004 44.823 64.4018 44.2924C65.9588 43.7872 67.0002 42.0136 67.4952 38.9925C67.9385 36.4457 67.4952 34.9815 66.1856 34.5897C64.6022 34.1711 62.966 33.987 61.3291 34.0432C61.0475 34.0578 60.7653 34.0578 60.4836 34.0432H59.7206" fill="white"/>
</svg>

<svg xmlns="http://www.w3.org/2000/svg" viewBox="0 0 80 80">
  <rect width="100%" height="100%" fill="#5C669A"/>
  <path fill="#fff" d="M12.23 29.94H22c2.88 0 4.97.82 6.25 2.46 1.29 1.65 1.71 3.86 1.28 6.65a12.76 12.76 0 0 1-3.47 7.13 8.17 8.17 0 0 1-3.91 2.4 18 18 0 0 1-4.31.5h-4.38L12.08 56H7l5.23-26.06Zm4.27 4.12L14.3 44.98h.95c1.97.08 3.94-.16 5.85-.69 1.55-.5 2.6-2.28 3.09-5.3.44-2.54 0-4-1.31-4.4-1.58-.42-3.22-.6-4.86-.55-.28.02-.56.02-.84 0h-.77l.08.02ZM35.32 23h5.03l-1.43 6.94h4.52A9.1 9.1 0 0 1 49 31.47c1.23.96 1.6 2.8 1.09 5.52l-2.42 12.12H42.5l2.34-11.56a3.27 3.27 0 0 0-.22-2.58 3.1 3.1 0 0 0-2.52-.76h-4.05L35.1 49.1h-5.07l5.26-26.09.03-.02Zm20.2 6.94h9.79c2.88 0 4.96.82 6.25 2.46 1.28 1.65 1.7 3.86 1.28 6.65a12.77 12.77 0 0 1-3.48 7.13 8.17 8.17 0 0 1-3.9 2.4 18 18 0 0 1-4.32.5h-4.38L55.38 56H50.3l5.22-26.06Zm4.27 4.12-2.18 10.92h.95c1.97.08 3.94-.16 5.84-.69 1.56-.5 2.6-2.28 3.1-5.3.44-2.54 0-4-1.31-4.4-1.59-.42-3.22-.6-4.86-.55-.28.02-.56.02-.85 0h-.76"/>
</svg>
